X:1
T:Title
%%score { ( 1 3 ) | 2 }
L:1/8
Q:1/4=100
M:2/2
K:F
V:1 treble nm="Grand Piano"
V:3 treble 
V:2 bass 
V:1
 [CFA]4 [CFA]2 [CFA]2 | z4 c4 | [Dc]2 [DB]2 [G,B,D]2 [B,DG]2 | [A,CF]4 [G,CE]4 | %4
w: W.~H.~Doane * *||||
 [EG]4 [EG]2 [_EG]2 | G4 z4 | [DB]2 [DA]2 [DG]2 [DF]2 | F4 .E4 | A4 A2 A2 | c4 c4 | c2 c2 d2 d2 | %11
w: |||||||
 e4 e4 | f4 c4 | f4 e2 [Fd]2 | %14
w: |||
 [Fc]2 [FA]2 [FA]2 [B,EG]2[Q:1/4=99][Q:1/4=97][Q:1/4=96][Q:1/4=94][Q:1/4=93][Q:1/4=91][Q:1/4=90][Q:1/4=88][Q:1/4=87][Q:1/4=85][Q:1/4=84][Q:1/4=82][Q:1/4=81][Q:1/4=79][Q:1/4=78][Q:1/4=76] | %15
w: |
[M:8/4] [A,F]8 z8 |[M:4/4] [B,DF]8 | [A,CF]6 z2 |] %18
w: |||
V:2
 F,4 E,2 D,2 | C,2 B,,2 [A,,F,]4 | [B,,F,]2 [B,,^F,]2 B,,2 G,,2 | C,4 C,4 | [C,C]4 [C,C]2 [C,C]2 | %5
 [B,,G,]3 [A,,^F,] [A,,F,]4 | [G,,G,]2 [A,,^F,]2 [B,,G,]2 [=B,,_A,]2 | [C,A,C]4 .[C,G,C]4 | %8
 [F,CF]4 [F,CF]2 [F,CF]2 | [A,CF]4 [A,CF]4 | [G,CE]2 [G,CE]2 [G,=B,G]2 [G,B,G]2 | [CG]4 [B,CG]4 | %12
 [A,CF]4 [A,_EF]4 | [B,DF]4 [B,CF]2[K:bass] [B,,B,]2 | [C,A,]2 [C,C]2 [C,C]2 C,2 |[M:8/4] F,8 z8 | %16
[M:4/4] B,,8 | F,6 z2 |] %18
V:3
 x8 | [CFA]4 F2 _E2 | x8 | x8 | x8 | D3- [DA] [DA]4 | x8 | x8 | x8 | x8 | x8 | x8 | x8 | x8 | x8 | %15
[M:8/4] x16 |[M:4/4] x8 | x8 |] %18

